apps/mobile/assets/icons/phosphor/arrows-in-line-horizontal.svg

<svg
  height="32"
  viewBox="0 0 256 256"
  width="32"
  xmlns="http://www.w3.org/2000/svg"
>
  <path
    d="m136 40v176a8 8 0 0 1 -16 0v-176a8 8 0 0 1 16 0zm-66.34 50.34a8 8 0 0 0 -11.32 11.32l18.35 18.34h-60.69a8 8 0 0 0 0 16h60.69l-18.35 18.34a8 8 0 0 0 11.32 11.32l32-32a8 8 0 0 0 0-11.32zm170.34 29.66h-60.69l18.35-18.34a8 8 0 0 0 -11.32-11.32l-32 32a8 8 0 0 0 0 11.32l32 32a8 8 0 0 0 11.32-11.32l-18.35-18.34h60.69a8 8 0 0 0 0-16z"
  />
</svg>

<svg xmlns="http://www.w3.org/2000/svg" width="32" height="32" fill="#000000" viewBox="0 0 256 256"><path d="M136,40V216a8,8,0,0,1-16,0V40a8,8,0,0,1,16,0ZM69.66,90.34a8,8,0,0,0-11.32,11.32L76.69,120H16a8,8,0,0,0,0,16H76.69L58.34,154.34a8,8,0,0,0,11.32,11.32l32-32a8,8,0,0,0,0-11.32ZM240,120H179.31l18.35-18.34a8,8,0,0,0-11.32-11.32l-32,32a8,8,0,0,0,0,11.32l32,32a8,8,0,0,0,11.32-11.32L179.31,136H240a8,8,0,0,0,0-16Z"></path></svg>
